brandFactory_export/3.Masa/Diana_3Masa.svg

<?xml version="1.0" encoding="UTF-8"?>
<svg width="24px" height="24px" viewBox="0 0 24 24" version="1.1" xmlns="http://www.w3.org/2000/svg" xmlns:xlink="http://www.w3.org/1999/xlink">
    <title>3.Masa/Diana_3Masa</title>
    <g id="Symbols" stroke="none" stroke-width="1" fill="none" fill-rule="evenodd">
        <g id="3.Masa/Diana_3Masa" fill="#5CB615" fill-rule="nonzero">
            <path d="M14.5008403,10.4705882 L13.8655462,11.1058824 L14.5008403,10.4705882 L14.9243697,10.0470588 L16.6857143,8.28907563 L14.9243697,10.0470588 L16.6857143,8.28907563 L15.687395,7.25042017 L12.9109244,10.0268908 C12.1680672,9.45882353 11.0991597,9.06554622 9.55630252,9.02857143 C9.36470588,9.02521008 8.81344538,9.02184874 8.81344538,9.02184874 C3.93277311,9.06554622 3.93277311,13.0285714 3.93277311,14.3294118 C3.93277311,15.6403361 3.93277311,19.6268908 8.89747899,19.697479 L9.12605042,19.7008403 L9.62352941,19.697479 C14.605042,19.610084 14.605042,15.6773109 14.605042,14.3865546 C14.605042,13.707563 14.5983193,12.3092437 13.8756303,11.1092437 L14.5008403,10.4705882 Z M16.6857143,8.28907563 C17.7647059,9.65714286 18.5277311,11.5966387 18.5277311,14.3831933 C18.5277311,22.9210084 11.4588235,23.5865546 9.6907563,23.6168067 C9.52268908,23.6201681 9.33445378,23.6235294 9.14285714,23.6235294 C9.04201681,23.6235294 8.94117647,23.6235294 8.84369748,23.6201681 C6.98487395,23.5932773 0.00672268908,22.9210084 0.00672268908,14.3260504 C0.00672268908,5.74453782 6.9210084,5.1092437 8.77983193,5.09243697 L8.97142857,5.09243697 C9.20672269,5.09243697 9.4487395,5.09579832 9.65714286,5.10252101 C10.7058824,5.12605042 13.512605,5.38823529 15.6907563,7.25042017 L15.1361345,7.80504202 L15.6907563,7.25042017 L16.8605042,6.08067227 L16.8605042,2.29579832 C16.8605042,2.16806723 16.9042017,2.05378151 16.9613445,1.94621849 C16.9647059,1.9394958 16.9680672,1.93613445 16.9714286,1.92941176 C17.0151261,1.85882353 17.0621849,1.79831933 17.1260504,1.74453782 C17.1327731,1.73781513 17.1361345,1.72773109 17.1462185,1.7210084 L19.0285714,0.218487395 C19.0453782,0.205042017 19.0689076,0.201680672 19.0890756,0.188235294 C19.2168067,0.0739495798 19.3815126,0 19.5697479,0 C19.9663866,0 20.292437,0.322689076 20.292437,0.722689076 L20.292437,2.69579832 C20.5680672,2.52436975 20.9310924,2.54789916 21.1731092,2.78655462 C21.3747899,2.98823529 21.4252101,3.27731092 21.3378151,3.52941176 L22.9142857,3.54621849 C23.3109244,3.54957983 23.6302521,3.87563025 23.6269171,4.27563025 C23.6269171,4.32605042 23.6067227,4.36638655 23.5966387,4.41344538 C23.5932773,4.43697479 23.5865546,4.46386555 23.5798319,4.48739496 C23.5663866,4.53109244 23.5495798,4.57142857 23.5260504,4.61176471 C23.5092437,4.64537815 23.502521,4.68235294 23.4823529,4.71260504 L22.1176471,6.68907563 C22.1109244,6.69915966 22.1008403,6.69915966 22.0941176,6.7092437 C21.9630252,6.89411765 21.7579832,7.02521008 21.5159664,7.02521008 L17.9495798,7.02521008 L16.6857143,8.28907563 L14.9243697,10.0470588 L16.6857143,8.28907563 Z M20.9478992,5.76470588 L21.7512605,4.77310924 L20.2184874,4.75630252 L19.210084,5.76470588 L20.9478992,5.76470588 Z M19.0252101,3.90588235 L19.0252101,2.02689076 L18.1210084,2.82016807 L18.1210084,4.81008403 L19.0252101,3.90588235 Z M8.53109244,12.3764706 C8.13445378,12.410084 7.84201681,12.7596639 7.87563025,13.1563025 L8.05714286,15.2369748 C8.06386555,15.307563 8.08067227,15.3747899 8.10420168,15.4386555 L8.11428571,15.4588235 C8.14453782,15.5294118 8.18823529,15.589916 8.23529412,15.6470588 C8.25210084,15.6672269 8.26890756,15.6806723 8.28907563,15.697479 C8.33613445,15.7411765 8.38655462,15.7747899 8.44369748,15.805042 C8.46386555,15.8151261 8.48067227,15.8285714 8.50084034,15.8352941 C8.51092437,15.8386555 8.51764706,15.8453782 8.52773109,15.8487395 C8.58823529,15.8722689 8.65210084,15.8756303 8.71596639,15.8823529 C8.73277311,15.8823529 8.74621849,15.892437 8.76302521,15.892437 L11.092437,15.9327731 L11.1058824,15.9327731 C11.4991597,15.9327731 11.8218487,15.6168067 11.8285714,15.2235294 C11.8352941,14.8268908 11.5193277,14.497479 11.1193277,14.4907563 L10.487395,14.4806723 L12.8033613,12.1647059 C13.0689076,12.7764706 13.1529412,13.5260504 13.1529412,14.3831933 C13.1529412,16.6655462 12.5478992,18.1983193 9.6,18.2521008 L9.12941176,18.2554622 L8.90756303,18.2521008 C5.96638655,18.2117647 5.36470588,16.6521008 5.36470588,14.3260504 C5.36470588,12.0268908 5.94957983,10.487395 8.80672269,10.4605042 C8.88067227,10.4605042 9.34117647,10.4638655 9.51260504,10.4672269 C10.5680672,10.4907563 11.3243697,10.6991597 11.8722689,11.0554622 L9.35798319,13.5697479 L9.31092437,13.0319328 C9.28067227,12.6352941 8.9512605,12.3529412 8.53109244,12.3764706 L8.53109244,12.3764706 Z" id="Diana_3Masa"></path>
        </g>
    </g>
</svg>

<svg width="24" height="24" viewBox="0 0 24 24" xmlns="http://www.w3.org/2000/svg"><path d="M14.5 10.47l-.634.636.635-.635.423-.424 1.762-1.758-1.762 1.758 1.762-1.758-.999-1.039-2.776 2.777c-.743-.568-1.812-.961-3.355-.998-.191-.004-.743-.007-.743-.007-4.88.044-4.88 4.007-4.88 5.307 0 1.311 0 5.298 4.964 5.368l.23.004.497-.004c4.981-.087 4.981-4.02 4.981-5.31 0-.68-.007-2.078-.73-3.278l.626-.638zm2.186-2.18c1.079 1.367 1.842 3.307 1.842 6.093 0 8.538-7.07 9.204-8.837 9.234-.168.003-.357.007-.548.007-.101 0-.202 0-.3-.004-1.858-.027-8.836-.699-8.836-9.294 0-8.581 6.914-9.217 8.773-9.234h.191c.236 0 .478.004.686.01 1.049.024 3.856.286 6.034 2.148l-.555.555.555-.555 1.17-1.17V2.297a.74.74 0 01.1-.35l.01-.017a.742.742 0 01.155-.184c.007-.007.01-.017.02-.024L19.03.218c.016-.013.04-.016.06-.03A.715.715 0 0119.57 0c.397 0 .723.323.723.723v1.973a.712.712 0 01.881.09c.202.202.252.491.165.743l1.576.017c.397.004.716.33.713.73 0 .05-.02.09-.03.137a.585.585 0 01-.07.199c-.018.033-.024.07-.045.1L22.118 6.69c-.007.01-.017.01-.024.02a.712.712 0 01-.578.316H17.95L16.686 8.29l-1.762 1.758 1.762-1.758zm4.262-2.525l.803-.992-1.533-.017-1.008 1.009h1.738zm-1.923-1.86V2.028l-.904.793v1.99l.904-.904zM8.531 12.377a.72.72 0 00-.655.78l.181 2.081c.007.07.024.138.047.202l.01.02c.03.07.074.13.121.188.017.02.034.034.054.05a.707.707 0 00.155.108c.02.01.037.024.057.03.01.004.017.01.027.014.06.023.124.027.188.033.017 0 .03.01.047.01l2.33.04h.013a.72.72 0 00.013-1.442l-.632-.01 2.316-2.315c.266.611.35 1.361.35 2.218 0 2.283-.605 3.815-3.553 3.87l-.47.002-.222-.003c-2.942-.04-3.543-1.6-3.543-3.926 0-2.3.585-3.839 3.442-3.865.074 0 .534.003.706.006 1.055.024 1.811.232 2.36.588L9.357 13.57l-.047-.538c-.03-.397-.36-.68-.78-.656z" fill="#5CB615" fill-rule="nonzero"/></svg>
